X:1
T: A Trip to Galway
C:
R:Jig
Q:180
K:Dm
M:6/8
L:1/16
B2|:A2F2D2 D2F2A2|c2d2c2 A2G2F2|EFG2E2 C2D2C2|E2F2G2 A2c2=B2|
A2F2D2 D2F2G2|A2=B2^c2 d4e2|f2e2d2 e2d2c2|1A2d2d2 d4B2:|2A2d2d2 d4e2|
|:f2e2d2 a2f2d2|def2g2 a2f2d2|e2d2c2 g2e2c2|cde2f2 g2f2e2|
f2e2d2 e2d2c2|dgf2d2 c2A2G2|F2G2A2 c2=B2c2|1A2d2d2 d4e2:|2A2d2d2 d4||
